src/icons/solid/symbols/tags.svg

<svg width="24" height="24" viewBox="0 0 24 24" fill="none" xmlns="http://www.w3.org/2000/svg">
<g clip-path="url(#clip0_4787_376)">
<path fill-rule="evenodd" clip-rule="evenodd" d="M7.40723 3.75879C8.22674 3.78881 9.01653 4.11809 9.61621 4.67773L19.6914 14.7539C20.4109 15.4636 20.411 16.6231 19.6914 17.3428L14.5742 22.46C14.2344 22.7998 13.774 23 13.2842 23C12.8045 22.9999 12.3349 22.7997 11.9951 22.46V22.4502L1.91992 12.375C1.36026 11.7754 1.03007 10.9855 1 10.166V5.58789C1 4.57837 1.81959 3.75883 2.8291 3.75879H7.40723ZM6.03809 7.41699C5.27855 7.41699 4.6584 8.03641 4.6582 8.7959C4.6582 9.55555 5.27843 10.1758 6.03809 10.1758C6.79757 10.1756 7.41699 9.55543 7.41699 8.7959C7.4168 8.03653 6.79745 7.4172 6.03809 7.41699Z" fill="#3C3B44"/>
<path d="M10.1758 1C10.9953 1.03003 11.7851 1.36022 12.3848 1.91992L22.46 11.9951C23.1796 12.7048 23.1796 13.8643 22.46 14.584L21.8506 15.1934C21.7907 15.2532 21.7107 15.2737 21.6309 15.2539C21.551 15.2339 21.481 15.1736 21.4609 15.0938C21.301 14.594 21.0307 14.1442 20.6709 13.7744L10.5957 3.69922C9.7897 2.9307 8.74618 2.46887 7.63867 2.38965L7.41699 2.37891H4.13867C4.05871 2.3889 3.98822 2.3395 3.94824 2.26953C3.90832 2.19966 3.90843 2.1197 3.94824 2.0498C4.2481 1.41011 4.888 1.00002 5.59766 1H10.1758Z" fill="#3C3B44"/>
</g>
<defs>
<clipPath id="clip0_4787_376">
<rect width="24" height="24" fill="white"/>
</clipPath>
</defs>
</svg>

<svg xmlns="http://www.w3.org/2000/svg" width="24" height="24" fill="none" viewBox="0 0 24 24"><g fill="currentColor" clip-path="url(#a)"><path fill-rule="evenodd" d="M7.407 3.759c.82.03 1.61.36 2.21.919L19.69 14.754c.72.71.72 1.87 0 2.589l-5.117 5.117c-.34.34-.8.54-1.29.54-.48 0-.95-.2-1.289-.54v-.01L1.92 12.375c-.56-.6-.89-1.39-.92-2.209V5.588c0-1.01.82-1.83 1.83-1.83zM6.038 7.417c-.76 0-1.38.62-1.38 1.379 0 .76.62 1.38 1.38 1.38s1.379-.62 1.379-1.38-.62-1.379-1.379-1.379" clip-rule="evenodd"/><path d="M10.176 1c.82.03 1.61.36 2.209.92L22.46 11.995c.72.71.72 1.87 0 2.589l-.61.61c-.06.06-.14.08-.22.06a.23.23 0 0 1-.17-.16c-.159-.5-.43-.95-.79-1.32L10.597 3.7A4.78 4.78 0 0 0 7.64 2.39l-.222-.01H4.139c-.08.01-.15-.04-.19-.11a.22.22 0 0 1 0-.22C4.248 1.41 4.887 1 5.597 1z"/></g><defs><clipPath id="a"><path fill="currentColor" d="M0 0h24v24H0z"/></clipPath></defs></svg>
